X:677
T:Reel 677
M:4/4
K:Emin
L:1/8
ef|gfe^c dcdB|ADFG FDDF|Bddf gfgf|effe dfedB:||2dedf e2|d2|B2ed efef|d2ef gfec|defd efga|bgaf gefd|B2Bc deeg|dfff aedf|g2ge f2fd|efed Beef|
